src/assets/svg/icons/social/vimeo.svg

<svg width="24" height="24" viewBox="0 0 24 24" fill="none" xmlns="http://www.w3.org/2000/svg">
<path fill-rule="evenodd" clip-rule="evenodd" d="M3.33324 2.13016C2.85625 2.28228 2.28504 2.8787 2.13433 3.38196C1.95522 3.9802 1.95522 20.0075 2.13433 20.6058C2.29346 21.1373 2.86213 21.7064 3.39338 21.8656C3.99126 22.0448 20.0087 22.0448 20.6066 21.8656C21.1379 21.7064 21.7065 21.1373 21.8657 20.6058C22.0448 20.0075 22.0448 3.9802 21.8657 3.38196C21.7065 2.85039 21.1379 2.28137 20.6066 2.12214C20.0469 1.95429 3.86093 1.9618 3.33324 2.13016ZM17.4363 5.86963C18.3143 6.16758 18.7246 6.80378 18.8154 8.00758C18.9373 9.62605 18.1163 11.4538 16.0266 14.2162C13.9931 16.9044 12.082 18.3566 10.7723 18.2088C10.1805 18.142 9.75108 17.7947 9.28454 17.0053C8.87906 16.3192 8.84103 16.2039 7.95258 12.9706C7.33248 10.7141 6.88288 9.64401 6.45661 9.4108C6.20235 9.27166 6.15539 9.28435 5.62627 9.63589L5.06541 10.0085L4.75476 9.58576C4.58386 9.35326 4.4441 9.13568 4.4441 9.10229C4.4441 8.96315 7.12995 6.68677 7.70774 6.33615C8.96851 5.57106 10.0022 5.92362 10.4812 7.28198C10.5639 7.51661 10.748 8.3987 10.8902 9.24234C11.5082 12.9075 11.9189 14.0105 12.5412 13.6773C13.0383 13.4111 14.0013 12.0277 14.4511 10.9339C14.7888 10.1126 14.7661 9.57033 14.3777 9.18175C14.0946 8.89851 14.0267 8.87699 13.5917 8.93332C13.3298 8.96721 13.0131 9.02415 12.8878 9.05997C12.6628 9.12421 12.6618 9.11995 12.8032 8.71888C13.4714 6.82378 14.7827 5.765 16.4728 5.75597C16.8131 5.75414 17.2466 5.80529 17.4363 5.86963Z" fill="#101010"/>
</svg>

<svg xmlns="http://www.w3.org/2000/svg" fill="none" viewBox="0 0 24 24">
  <path fill="currentColor" fill-rule="evenodd" d="M3.333 2.13c-.477.152-1.048.749-1.199 1.252-.179.598-.179 16.626 0 17.224.16.531.728 1.1 1.26 1.26.597.179 16.615.179 17.213 0 .53-.16 1.1-.729 1.259-1.26.179-.599.179-16.626 0-17.224-.16-.532-.728-1.1-1.26-1.26-.56-.168-16.745-.16-17.273.008Zm14.103 3.74c.878.298 1.289.934 1.38 2.138.121 1.618-.7 3.446-2.79 6.208-2.033 2.688-3.944 4.14-5.254 3.993-.591-.067-1.02-.414-1.487-1.204-.406-.686-.444-.801-1.332-4.034-.62-2.257-1.07-3.327-1.496-3.56-.255-.14-.302-.127-.83.225l-.562.373-.31-.423c-.171-.233-.31-.45-.31-.484 0-.139 2.685-2.415 3.263-2.766 1.26-.765 2.294-.412 2.773.946.083.235.267 1.117.41 1.96.617 3.665 1.028 4.768 1.65 4.435.497-.266 1.46-1.65 1.91-2.743.338-.821.315-1.364-.073-1.752-.283-.283-.351-.305-.786-.249-.262.034-.579.091-.704.127-.225.064-.226.06-.085-.341.668-1.895 1.98-2.954 3.67-2.963.34-.002.774.05.963.114Z" clip-rule="evenodd"/>
</svg>
